public/static/img/assets/stock.svg

<svg width="18" height="18" viewBox="0 0 18 18" fill="none" xmlns="http://www.w3.org/2000/svg">
<path d="M4.8 14.0404H2.76C2.64 14.0404 2.52 13.9204 2.52 13.8004V10.0404C2.52 9.92039 2.64 9.80039 2.76 9.80039H4.8C4.92 9.80039 5.04 9.92039 5.04 10.0404V13.8004C5.04 13.9204 4.96 14.0404 4.8 14.0404ZM8.23999 14.0404H6.16C6.03999 14.0404 5.92 13.9204 5.92 13.8004V5.08039C5.92 4.96039 6.03999 4.84039 6.16 4.84039H8.23999C8.35999 4.84039 8.48 4.96039 8.48 5.08039V13.8004C8.48 13.9204 8.35999 14.0404 8.23999 14.0404ZM11.68 14.0404H9.6C9.48 14.0404 9.35999 13.9204 9.35999 13.8004V7.52039C9.35999 7.40039 9.48 7.28039 9.6 7.28039H11.68C11.8 7.28039 11.92 7.40039 11.92 7.52039V13.8004C11.92 13.9204 11.8 14.0404 11.68 14.0404ZM15.12 14.0404H13.04C12.92 14.0404 12.8 13.9204 12.8 13.8004V2.64039C12.8 2.52039 12.92 2.40039 13.04 2.40039H15.12C15.24 2.40039 15.36 2.52039 15.36 2.64039V13.8004C15.36 13.9204 15.24 14.0404 15.12 14.0404ZM15.48 15.8004H2.36C2.24 15.8004 2.12 15.6804 2.12 15.5604V15.0804C2.12 14.9604 2.24 14.8404 2.36 14.8404H15.48C15.6 14.8404 15.72 14.9604 15.72 15.0804V15.6004C15.72 15.7204 15.64 15.8004 15.48 15.8004Z" fill="#171717"/>
</svg>

<svg width="18" height="18" fill="none" xmlns="http://www.w3.org/2000/svg"><path d="M4.8 14.04H2.76c-.12 0-.24-.12-.24-.24v-3.76c0-.12.12-.24.24-.24H4.8c.12 0 .24.12.24.24v3.76c0 .12-.08.24-.24.24Zm3.44 0H6.16c-.12 0-.24-.12-.24-.24V5.08c0-.12.12-.24.24-.24h2.08c.12 0 .24.12.24.24v8.72c0 .12-.12.24-.24.24Zm3.44 0H9.6c-.12 0-.24-.12-.24-.24V7.52c0-.12.12-.24.24-.24h2.08c.12 0 .24.12.24.24v6.28c0 .12-.12.24-.24.24Zm3.44 0h-2.08c-.12 0-.24-.12-.24-.24V2.64c0-.12.12-.24.24-.24h2.08c.12 0 .24.12.24.24V13.8c0 .12-.12.24-.24.24Zm.36 1.76H2.36c-.12 0-.24-.12-.24-.24v-.48c0-.12.12-.24.24-.24h13.12c.12 0 .24.12.24.24v.52c0 .12-.08.2-.24.2Z" fill="#171717"/></svg>
